vendor/shopware/storefront/Resources/app/storefront/dist/assets/icon/default/arrow-head-left.svg

<svg xmlns="http://www.w3.org/2000/svg" xmlns:xlink="http://www.w3.org/1999/xlink" width="24" height="24" viewBox="0 0 24 24">
  <defs>
    <path id="icons-default-arrow-head-left-a" d="M12.5,7.91421356 L22.7928932,18.2071068 C23.1834175,18.5976311 23.8165825,18.5976311 24.2071068,18.2071068 C24.5976311,17.8165825 24.5976311,17.1834175 24.2071068,16.7928932 L13.2071068,5.79289322 C12.8165825,5.40236893 12.1834175,5.40236893 11.7928932,5.79289322 L0.792893219,16.7928932 C0.402368927,17.1834175 0.402368927,17.8165825 0.792893219,18.2071068 C1.18341751,18.5976311 1.81658249,18.5976311 2.20710678,18.2071068 L12.5,7.91421356 Z"/>
  </defs>
  <use fill="#758CA3" fill-rule="evenodd" transform="matrix(0 1 1 0 .5 -.5)" xlink:href="#icons-default-arrow-head-left-a"/>
</svg>

<svg xmlns="http://www.w3.org/2000/svg" xmlns:xlink="http://www.w3.org/1999/xlink" width="24" height="24" viewBox="0 0 24 24"><defs><path id="icons-default-arrow-head-left-a" d="m12.5 7.9142 10.2929 10.293c.3905.3904 1.0237.3904 1.4142 0 .3905-.3906.3905-1.0238 0-1.4143l-11-11c-.3905-.3905-1.0237-.3905-1.4142 0l-11 11c-.3905.3905-.3905 1.0237 0 1.4142.3905.3905 1.0237.3905 1.4142 0L12.5 7.9142z"/></defs><use fill="#758CA3" fill-rule="evenodd" transform="matrix(0 1 1 0 .5 -.5)" xlink:href="#icons-default-arrow-head-left-a"/></svg>
